_includes/icons/ios-fork.svg

<svg fill="#666" height="50" viewBox="0 0 50 50" width="50" xmlns="http://www.w3.org/2000/svg"><path d="m36.875.875-.4375.375s-7.300781 6.515625-11.5625 10.78125c-2.570312 2.570313-2.765625 5.300781-2.5 7.34375.132813 1.019531.351563 1.878906.40625 2.5.054688.621094 0 .84375-.1875 1.03125-.804687.800781-3.347656 2.863281-6.15625 5.1875s-5.9375 4.964844-8.15625 7.1875c-4.007812 4.007813-5.933594 6.519531-6.75 8.40625-.410156.941406-.53125 1.761719-.375 2.5s.582031 1.300781.96875 1.6875c.386719.390625.949219.808594 1.6875.96875s1.554688.035156 2.5-.375c1.886719-.816406 4.398438-2.738281 8.40625-6.75 2.21875-2.21875 4.835938-5.347656 7.15625-8.15625 2.320313-2.808594 4.386719-5.351562 5.1875-6.15625.191406-.191406.386719-.246094 1-.1875s1.480469.269531 2.5.40625c2.039063.273438 4.808594.066406 7.40625-2.53125 2.835938-2.835937 10.78125-11.5 10.78125-11.5l.375-.4375-.15625-.53125s-.257812-.78125-.96875-1.9375c-.710937-1.15625-1.917969-2.761719-3.875-4.71875s-3.578125-3.175781-4.75-3.90625-1.96875-1-1.96875-1zm.40625 2.3125c.21875.09375.328125.125 1.03125.5625.429688.269531.980469.644531 1.5625 1.09375l-8.5 8.5c-.296875.242188-.433594.628906-.347656 1.003906.085937.371094.378906.664063.75.75.375.085938.761719-.050781 1.003906-.347656l8.625-8.625c.417969.375.847656.785156 1.3125 1.25.417969.417969.78125.804688 1.125 1.1875l-8.625 8.625c-.296875.242188-.433594.628906-.347656 1.003906.085937.371094.378906.664063.75.75.375.085938.761719-.050781 1.003906-.347656l8.5-8.5c.492188.636719.875 1.203125 1.15625 1.65625.421875.691406.417969.792969.5 1-.644531.703125-7.625 8.34375-10.21875 10.9375-2.175781 2.175781-3.964844 2.203125-5.71875 1.96875-.878906-.117187-1.707031-.355469-2.5625-.4375s-1.890625.042969-2.625.78125c-1.046875 1.050781-3 3.484375-5.3125 6.28125s-4.949219 5.886719-7.0625 8c-3.933594 3.9375-6.363281 5.742188-7.75 6.34375-.691406.300781-1.078125.300781-1.3125.25s-.429687-.148437-.6875-.40625v-.03125c-.257812-.257812-.355469-.421875-.40625-.65625s-.050781-.621094.25-1.3125c.601563-1.386719 2.40625-3.8125 6.34375-7.75 2.113281-2.117187 5.203125-4.746094 8-7.0625s5.234375-4.265625 6.28125-5.3125c.738281-.738281.859375-1.761719.78125-2.625s-.292969-1.710937-.40625-2.59375c-.230469-1.765625-.230469-3.546875 1.90625-5.6875 4.003906-4.003906 10.445313-9.753906 11-10.25z"/></svg>

<svg xmlns="http://www.w3.org/2000/svg" viewBox="0 0 50 50" width="50" height="50" fill="#666"><path d="M 36.875 0.875 L 36.4375 1.25 C 36.4375 1.25 29.136719 7.765625 24.875 12.03125 C 22.304688 14.601563 22.109375 17.332031 22.375 19.375 C 22.507813 20.394531 22.726563 21.253906 22.78125 21.875 C 22.835938 22.496094 22.78125 22.71875 22.59375 22.90625 C 21.789063 23.707031 19.246094 25.769531 16.4375 28.09375 C 13.628906 30.417969 10.5 33.058594 8.28125 35.28125 C 4.273438 39.289063 2.347656 41.800781 1.53125 43.6875 C 1.121094 44.628906 1 45.449219 1.15625 46.1875 C 1.3125 46.925781 1.738281 47.488281 2.125 47.875 C 2.511719 48.265625 3.074219 48.683594 3.8125 48.84375 C 4.550781 49.003906 5.367188 48.878906 6.3125 48.46875 C 8.199219 47.652344 10.710938 45.730469 14.71875 41.71875 C 16.9375 39.5 19.554688 36.371094 21.875 33.5625 C 24.195313 30.753906 26.261719 28.210938 27.0625 27.40625 C 27.253906 27.214844 27.449219 27.160156 28.0625 27.21875 C 28.675781 27.277344 29.542969 27.488281 30.5625 27.625 C 32.601563 27.898438 35.371094 27.691406 37.96875 25.09375 C 40.804688 22.257813 48.75 13.59375 48.75 13.59375 L 49.125 13.15625 L 48.96875 12.625 C 48.96875 12.625 48.710938 11.84375 48 10.6875 C 47.289063 9.53125 46.082031 7.925781 44.125 5.96875 C 42.167969 4.011719 40.546875 2.792969 39.375 2.0625 C 38.203125 1.332031 37.40625 1.0625 37.40625 1.0625 Z M 37.28125 3.1875 C 37.5 3.28125 37.609375 3.3125 38.3125 3.75 C 38.742188 4.019531 39.292969 4.394531 39.875 4.84375 L 31.375 13.34375 C 31.078125 13.585938 30.941406 13.972656 31.027344 14.347656 C 31.113281 14.71875 31.40625 15.011719 31.777344 15.097656 C 32.152344 15.183594 32.539063 15.046875 32.78125 14.75 L 41.40625 6.125 C 41.824219 6.5 42.253906 6.910156 42.71875 7.375 C 43.136719 7.792969 43.5 8.179688 43.84375 8.5625 L 35.21875 17.1875 C 34.921875 17.429688 34.785156 17.816406 34.871094 18.191406 C 34.957031 18.5625 35.25 18.855469 35.621094 18.941406 C 35.996094 19.027344 36.382813 18.890625 36.625 18.59375 L 45.125 10.09375 C 45.617188 10.730469 46 11.296875 46.28125 11.75 C 46.703125 12.441406 46.699219 12.542969 46.78125 12.75 C 46.136719 13.453125 39.15625 21.09375 36.5625 23.6875 C 34.386719 25.863281 32.597656 25.890625 30.84375 25.65625 C 29.964844 25.539063 29.136719 25.300781 28.28125 25.21875 C 27.425781 25.136719 26.390625 25.261719 25.65625 26 C 24.609375 27.050781 22.65625 29.484375 20.34375 32.28125 C 18.03125 35.078125 15.394531 38.167969 13.28125 40.28125 C 9.347656 44.21875 6.917969 46.023438 5.53125 46.625 C 4.839844 46.925781 4.453125 46.925781 4.21875 46.875 C 3.984375 46.824219 3.789063 46.726563 3.53125 46.46875 L 3.53125 46.4375 C 3.273438 46.179688 3.175781 46.015625 3.125 45.78125 C 3.074219 45.546875 3.074219 45.160156 3.375 44.46875 C 3.976563 43.082031 5.78125 40.65625 9.71875 36.71875 C 11.832031 34.601563 14.921875 31.972656 17.71875 29.65625 C 20.515625 27.339844 22.953125 25.390625 24 24.34375 C 24.738281 23.605469 24.859375 22.582031 24.78125 21.71875 C 24.703125 20.855469 24.488281 20.007813 24.375 19.125 C 24.144531 17.359375 24.144531 15.578125 26.28125 13.4375 C 30.285156 9.433594 36.726563 3.683594 37.28125 3.1875 Z"/></svg>
